build/svg/cmd/sc_insertsection.svg

<?xml version="1.0" encoding="UTF-8" standalone="no"?>
<svg
   xmlns:dc="http://purl.org/dc/elements/1.1/"
   xmlns:cc="http://creativecommons.org/ns#"
   xmlns:rdf="http://www.w3.org/1999/02/22-rdf-syntax-ns#"
   xmlns:svg="http://www.w3.org/2000/svg"
   xmlns="http://www.w3.org/2000/svg"
   xmlns:sodipodi="http://sodipodi.sourceforge.net/DTD/sodipodi-0.dtd"
   xmlns:inkscape="http://www.inkscape.org/namespaces/inkscape"
   viewBox="0 0 16 16"
   version="1.1"
   id="svg6"
   sodipodi:docname="sc_insertsection.svg"
   inkscape:version="0.92.5 (2060ec1f9f, 2020-04-08)"
   inkscape:export-filename="/home/jupiter007/Libreoffice yaru theme fullcolor/build/cmd/sc_insertsection.png"
   inkscape:export-xdpi="95"
   inkscape:export-ydpi="95">
  <metadata
     id="metadata12">
    <rdf:RDF>
      <cc:Work
         rdf:about="">
        <dc:format>image/svg+xml</dc:format>
        <dc:type
           rdf:resource="http://purl.org/dc/dcmitype/StillImage" />
      </cc:Work>
    </rdf:RDF>
  </metadata>
  <defs
     id="defs10" />
  <sodipodi:namedview
     pagecolor="#ffffff"
     bordercolor="#666666"
     borderopacity="1"
     objecttolerance="10"
     gridtolerance="10"
     guidetolerance="10"
     inkscape:pageopacity="0"
     inkscape:pageshadow="2"
     inkscape:window-width="1920"
     inkscape:window-height="1011"
     id="namedview8"
     showgrid="true"
     inkscape:zoom="29.5"
     inkscape:cx="4.6994619"
     inkscape:cy="6.8363098"
     inkscape:window-x="0"
     inkscape:window-y="32"
     inkscape:window-maximized="1"
     inkscape:current-layer="svg6">
    <inkscape:grid
       type="xygrid"
       id="grid822" />
  </sodipodi:namedview>
  <path
     sodipodi:nodetypes="cccscsccccccccscscccccc"
     inkscape:connector-curvature="0"
     id="path4237-1"
     d="m 4.9941406,0.999276 c -1.2582,0.0145 -2.178891,-0.030604 -2.931641,0.3847658 C 1.68613,1.5917017 1.389269,1.9434287 1.224609,2.3820885 1.059939,2.8207585 1,3.341676 1,3.999276 V 5.4875571 11 c 0,0.65761 0.0599,1.178577 0.224609,1.617188 0.16468,0.438611 0.461531,0.788524 0.8378906,0.996093 0.75272,0.41513 1.673541,0.371649 2.931641,0.386719 h 0.002 6.0057864 0.0039 c 1.25819,-0.0145 2.178891,0.0306 2.931641,-0.384766 0.37637,-0.20766 0.673221,-0.559386 0.837891,-0.998046 C 14.939898,12.178517 14.999977,11.65761 14.999977,11 V 5.466073 3.999276 c 0,-0.6576 -0.0599,-1.1785776 -0.224609,-1.6171875 C 14.610688,1.9434886 14.313837,1.5935548 13.937477,1.3859949 13.184707,0.9708648 12.263876,1.0143562 11.005786,0.999276 h -0.002 -6.0057864 z"
     style="font-style:normal;font-variant:normal;font-weight:normal;font-stretch:normal;font-size:15px;line-height:125%;font-family:Ubuntu;-inkscape-font-specification:Ubuntu;text-align:center;letter-spacing:0px;word-spacing:0px;writing-mode:lr-tb;text-anchor:middle;display:inline;opacity:0.6;fill:#000000;fill-opacity:1;stroke:none;stroke-width:0.99980211" />
  <path
     inkscape:connector-curvature="0"
     id="path1993"
     d="m 4.9829998,2.0264608 c -1.556581,0.010796 -0.1096212,-0.011752 -1.6595722,0.038775 -0.461229,0.042668 -1.016188,0.2064193 -1.15534,0.7099666 -0.218994,0.6353465 -0.108414,1.3337872 -0.145796,1.9819244 -0.0078,2.2970846 -0.02297,4.5965692 0.02152,6.8859212 0.0391,0.461929 0.202551,1.012666 0.698756,1.163666 0.632456,0.225082 1.284144,0.12274 1.935974,0.154298 1.424235,0.0068 -0.1498058,0.01102 1.2760512,0.01131 1.704531,3.5e-4 4.4086842,-0.005 6.1074862,-0.01851 0.511911,-0.01201 1.183699,0.01993 1.584745,-0.405191 0.421097,-0.539783 0.287073,-1.268021 0.322745,-1.903787 0.01187,-2.4443237 0.02769,-4.911236 -0.0219,-7.3569355 C 13.898389,2.8858582 13.777677,2.4249465 13.37253,2.2434234 12.704361,1.949326 11.946325,2.0754045 11.246609,2.0378506 9.4922024,2.0260481 6.7374388,2.0253662 4.9829998,2.0264608 Z"
     style="opacity:1;vector-effect:none;fill:#ffffff;fill-opacity:1;stroke:none;stroke-width:1;stroke-linecap:round;stroke-linejoin:bevel;stroke-miterlimit:4;stroke-dasharray:none;stroke-dashoffset:0;stroke-opacity:1"
     sodipodi:nodetypes="cccccccsccccccc" />
  <path
     style="fill:#000000;fill-opacity:1"
     d="M 3,4 V 5 H 13 V 4 Z"
     id="path838"
     inkscape:connector-curvature="0" />
  <path
     style="fill:#000000;fill-opacity:1"
     d="m 2.9832954,9.999416 v 1 l 9.9999996,10e-7 V 9.999416 Z"
     id="path2-1" />
  <rect
     style="opacity:1;fill:#fa9381;fill-opacity:1;stroke:none;stroke-width:1.51185811;stroke-linecap:round;stroke-linejoin:round;stroke-miterlimit:4;stroke-dasharray:none;stroke-opacity:1"
     id="rect848"
     width="4.000001"
     height="1"
     x="2.999999"
     y="6"
     ry="0" />
  <rect
     ry="0"
     y="8"
     x="2.999999"
     height="1"
     width="4.000001"
     id="rect840"
     style="opacity:1;fill:#fa9381;fill-opacity:1;stroke:none;stroke-width:1.51185811;stroke-linecap:round;stroke-linejoin:round;stroke-miterlimit:4;stroke-dasharray:none;stroke-opacity:1" />
  <rect
     ry="0"
     y="6"
     x="8.999999"
     height="1"
     width="4.000001"
     id="rect842"
     style="opacity:1;fill:#fa9381;fill-opacity:1;stroke:none;stroke-width:1.51185811;stroke-linecap:round;stroke-linejoin:round;stroke-miterlimit:4;stroke-dasharray:none;stroke-opacity:1" />
  <rect
     style="opacity:1;fill:#fa9381;fill-opacity:1;stroke:none;stroke-width:1.51185811;stroke-linecap:round;stroke-linejoin:round;stroke-miterlimit:4;stroke-dasharray:none;stroke-opacity:1"
     id="rect844"
     width="4.000001"
     height="1"
     x="8.999999"
     y="8"
     ry="0" />
</svg>

<svg xmlns="http://www.w3.org/2000/svg" viewBox="0 0 16 16"><path d="M4.994 1c-1.258.014-2.179-.031-2.932.384a1.88 1.88 0 00-.837.998C1.06 2.821 1 3.342 1 4V11c0 .658.06 1.179.225 1.617.164.439.461.789.837.996.753.415 1.674.372 2.932.387h6.012c1.258-.015 2.179.03 2.931-.385a1.88 1.88 0 00.838-.998c.165-.438.225-.96.225-1.617V3.999c0-.657-.06-1.178-.225-1.617a1.875 1.875 0 00-.838-.996c-.752-.415-1.673-.372-2.931-.387H4.998z" style="line-height:125%;-inkscape-font-specification:Ubuntu;text-align:center" font-weight="400" font-size="15" font-family="Ubuntu" letter-spacing="0" word-spacing="0" text-anchor="middle" opacity=".6"/><path d="M4.983 2.026c-1.557.011-.11-.011-1.66.04-.46.042-1.016.206-1.155.71-.219.635-.108 1.333-.146 1.981-.008 2.297-.023 4.597.022 6.886.039.462.202 1.013.699 1.164.632.225 1.284.122 1.936.154 1.424.007-.15.011 1.276.011 1.704 0 4.408-.005 6.107-.018.512-.012 1.184.02 1.585-.405.42-.54.287-1.268.323-1.904.011-2.444.027-4.911-.022-7.357-.05-.402-.17-.863-.575-1.045-.669-.294-1.427-.168-2.126-.205-1.755-.012-4.51-.013-6.264-.012z" fill="#fff"/><path d="M3 4v1h10V4zM2.983 10v1h10v-1z"/><rect width="4" height="1" x="3" y="6" ry="0" fill="#fa9381"/><rect ry="0" y="8" x="3" height="1" width="4" fill="#fa9381"/><rect ry="0" y="6" x="9" height="1" width="4" fill="#fa9381"/><rect width="4" height="1" x="9" y="8" ry="0" fill="#fa9381"/></svg>
